X:1
T:Come Under My Plaidie. TWC.046
T:Come Under My Plaidie. TWC.046
T:Old Scotch
C:Old Scotch
L:1/8
Q:3/8=120
M:6/8
K:G
V:1 treble 
V:1
"^Allegretto" e | dBB BAG | dBB B2 g | dBB BAB | GEE E2 e | dBB BAG | dBB g2 e | dBB BAB | %8
 GEE E2 || B | g3 a3 | bag fed | gfg aga | bge e2 g/a/ | bgb afa | gfe g2 e | dBB BAB | GEE E2 |] %18

